media/costumes/H-glow.svg

<svg width="71" height="93" xmlns="http://www.w3.org/2000/svg"><path fill="#0CC" d="M66.231 84.6c-1.98 2.15-5.62 4.69-11.78 4.69h-1.69c-1.04.06-1.85.09-2.53.09-.41 0-.84.03-1.28.07-.34.12-1.02.36-2.23.83-3.29 1.32-5.84 1.92-8.28 1.92-3.42 0-6.64-1.22-9.3-3.52a13.753 13.753 0 0 1-3.59-4.76c-1.27-.1-2.88-.25-4.94-.43h-5.21c-.24 0-.47-.01-.7-.03-2.6-.16-5.11-.91-7.44-2.23-4.33-2.45-6.91-6.67-6.91-11.29 0-5.04 2.82-9.53 7.55-12.02.15-.09.31-.17.47-.24.34-.16.68-.3 1.02-.44.01-.25.01-.51.02-.77v-7.14c0-.3.01-.59.03-.88-.56-2.35-.5-4.75.18-6.97 0-.13 0-.3-.01-.52-.02-.22-.02-.44-.02-.65 0-.76.05-1.64.19-2.93.03-.33.06-.59.07-.8-.01-.24-.07-1.35-.38-4.9-5.87-2.27-8.72-7.33-9.36-11.82-.31-2.16.03-4.38.99-6.35 2.71-5.59 8.22-8.93 14.74-8.93.4 0 .8.02 1.19.06.42.04 1.71.15 3.85.33 1.84.16 2.85.19 3.39.19h.36c.17-.02.3-.03.47-.04 1.85-.1 3.09-.17 3.71-.21.04 0 .09-.01.13-.01.21-.21.43-.42.66-.62 3.2-2.81 7.2-4.28 11.57-4.28 1.51 0 2.65.02 3.5.06.68.03 1.23.08 1.74.15.12.01.25.03.38.06h4.06c.19-.02.44-.05.76-.08 1.25-.13 2.24-.19 3.11-.19 6.25 0 11.28 3.07 13.55 8.25.87 1.89 1.32 3.85 1.32 5.83 0 4.65-2.58 9.59-8.19 11.94.18 3.65.27 7.22.27 10.7v23c.02.2.06.44.1.72l.03.22c.1.72.18 1.44.24 2.16 4.55 1.97 7.63 6.12 8.04 11.42.22 2.63-.3 6.51-3.85 10.36z"/><path fill="#FFF" d="M59.115 75.126c.058.585-.265 1.26-.968 2.022-.704.762-1.936 1.144-3.694 1.144H52.43a38.09 38.09 0 0 1-2.199.088c-1.114 0-2.258.088-3.43.265-.646.116-2.023.585-4.135 1.407-1.877.761-3.284 1.144-4.222 1.144-.763 0-1.467-.279-2.111-.836-.646-.558-.967-1.218-.967-1.979 0-1.231 1.436-2.198 4.31-2.902 4.163-1.056 6.303-1.613 6.421-1.671-.118-3.752-.264-8.062-.439-12.931-.176-4.574-.265-6.743-.265-6.509v-6.246c.059-.645.059-1.112 0-1.407-.059-.527-.264-.849-.615-.967-.059-.059-.938-.089-2.639-.089-2.933.06-6.333.471-10.203 1.231-1.467.353-3.666.852-6.598 1.496v12.578c.058.235.088 1.379.088 3.431 0 1.643.177 2.639.528 2.99.293.118 1.847.235 4.662.353 1.935.059 3.136.763 3.606 2.11.116.353-.016.88-.396 1.584-.382.703-.777 1.144-1.188 1.319-.938.352-1.583.527-1.935.527-1.291-.059-4.486-.323-9.588-.791h-5.718c-.938-.06-1.847-.339-2.727-.836-.88-.498-1.319-1.069-1.319-1.716 0-.937.557-1.699 1.671-2.286.88-.41 1.848-.616 2.903-.616.409 0 1.144.016 2.198.044 1.056.03 1.817.016 2.287-.044-.118-2.277-.118-5.753 0-10.428v-7.271c0-.175.073-.54.221-1.096.146-.555.22-.979.22-1.27-.235-.234-.471-.584-.704-1.052-.118-.467-.118-.875 0-1.228.41-.935.557-2.394.439-4.381 0-.35.045-.948.133-1.795.088-.847.132-1.476.132-1.885 0-.759-.147-2.774-.44-6.046v-7.273c0-.349-.115-.904-.345-1.664-1.612.176-2.793.264-3.54.264-3.34 0-5.182-1.201-5.526-3.606.879-1.816 2.491-2.727 4.838-2.727-.06 0 1.319.118 4.134.352 2.639.235 4.544.294 5.718.176 3.283-.176 4.75-.264 4.397-.264 3.225 0 4.662.968 4.311 2.903-.294 1.407-1.643 2.141-4.047 2.198l-5.365.176c.308 2.054.513 4.341.616 6.861V41.61c.058.06.146.118.264.176.938.06 1.876.088 2.814.088 2.169 0 4.955-.176 8.356-.527 4.574-.527 7.357-.82 8.355-.88.293-1.876.44-4.104.44-6.685 0-4.867-.411-10.32-1.231-16.361h-3.519c-1.231 0-2.346-.225-3.343-.677-.997-.452-1.495-1.372-1.495-2.76 0-.603.205-1.085.616-1.446C38.031 11.513 39.467 11 41.169 11c3.167 0 4.456.088 3.87.264h6.069c.233 0 .776-.044 1.627-.132.85-.088 1.51-.132 1.979-.132 1.876 0 3.049.589 3.519 1.762.233.471.352.912.352 1.321 0 1.292-1.202 2.056-3.606 2.291-1.759.06-3.519.118-5.277.176.645 6.987.968 13.711.968 20.171v23.343c0 .353.075 1.029.227 2.026.2 1.527.301 3.024.301 4.492-.059 2.643-.059 4.699 0 6.167.117.176.233.321.352.439 2.873-.411 4.28-.615 4.223-.615 2.111.002 3.224.851 3.342 2.553z"/></svg>

<svg version="1.1" width="71" height="93" xmlns="http://www.w3.org/2000/svg" xmlns:xlink="http://www.w3.org/1999/xlink">
  <!-- Exported by Scratch - http://scratch.mit.edu/ -->
  <g id="ID0.3487820033915341">
    <g id="ID0.8976084827445447">
      <g id="ID0.24310593213886023">
        <path id="ID0.5178547315299511" fill="#00CCCC" d="M 66.231 84.600 C 64.251 86.750 60.611 89.290 54.451 89.290 L 52.761 89.290 C 51.721 89.350 50.911 89.380 50.231 89.380 C 49.821 89.380 49.391 89.410 48.951 89.450 C 48.611 89.570 47.931 89.810 46.721 90.280 C 43.431 91.600 40.881 92.200 38.441 92.200 C 35.021 92.200 31.801 90.980 29.141 88.680 C 27.571 87.330 26.361 85.710 25.551 83.920 C 24.281 83.820 22.671 83.670 20.611 83.490 L 15.401 83.490 C 15.161 83.490 14.931 83.480 14.701 83.460 C 12.101 83.300 9.591 82.550 7.261 81.230 C 2.931 78.780 0.351 74.560 0.351 69.940 C 0.351 64.900 3.171 60.410 7.901 57.920 C 8.051 57.830 8.211 57.750 8.371 57.680 C 8.711 57.520 9.051 57.380 9.391 57.240 C 9.401 56.990 9.401 56.730 9.411 56.470 L 9.411 49.330 C 9.411 49.030 9.421 48.740 9.441 48.450 C 8.881 46.100 8.941 43.700 9.621 41.480 C 9.621 41.350 9.621 41.180 9.611 40.960 C 9.591 40.740 9.591 40.520 9.591 40.310 C 9.591 39.550 9.641 38.670 9.781 37.380 C 9.811 37.050 9.841 36.790 9.851 36.580 C 9.841 36.340 9.781 35.230 9.471 31.680 C 3.601 29.410 0.751 24.350 0.111 19.860 C -0.199 17.700 0.141 15.480 1.101 13.510 C 3.811 7.920 9.321 4.580 15.841 4.580 C 16.241 4.580 16.641 4.600 17.031 4.640 C 17.451 4.680 18.741 4.790 20.881 4.970 C 22.721 5.130 23.731 5.160 24.271 5.160 L 24.631 5.160 C 24.801 5.140 24.931 5.130 25.101 5.120 C 26.951 5.020 28.191 4.950 28.811 4.910 C 28.851 4.910 28.901 4.900 28.941 4.900 C 29.151 4.690 29.371 4.480 29.601 4.280 C 32.801 1.470 36.801 0 41.171 0 C 42.681 0 43.821 0.020 44.671 0.060 C 45.351 0.090 45.901 0.140 46.411 0.210 C 46.531 0.220 46.661 0.240 46.791 0.270 L 50.851 0.270 C 51.041 0.250 51.291 0.220 51.611 0.190 C 52.861 0.060 53.851 0 54.721 0 C 60.971 0 66.001 3.070 68.271 8.250 C 69.141 10.140 69.591 12.100 69.591 14.080 C 69.591 18.730 67.011 23.670 61.401 26.020 C 61.581 29.670 61.671 33.240 61.671 36.720 L 61.671 59.720 C 61.691 59.920 61.731 60.160 61.771 60.440 C 61.781 60.510 61.791 60.590 61.801 60.660 C 61.901 61.380 61.981 62.100 62.041 62.820 C 66.591 64.790 69.671 68.940 70.081 74.240 C 70.301 76.870 69.781 80.750 66.231 84.600 Z "/>
      </g>
    </g>
    <g id="ID0.21101475600153208">
      <path id="ID0.4091448332183063" fill="#FFFFFF" d="M 59.115 75.126 C 59.173 75.711 58.850 76.386 58.147 77.148 C 57.443 77.910 56.211 78.292 54.453 78.292 C 54.042 78.292 53.367 78.292 52.430 78.292 C 51.492 78.350 50.759 78.380 50.231 78.380 C 49.117 78.380 47.973 78.468 46.801 78.645 C 46.155 78.761 44.778 79.230 42.666 80.052 C 40.789 80.813 39.382 81.196 38.444 81.196 C 37.681 81.196 36.977 80.917 36.333 80.360 C 35.687 79.802 35.366 79.142 35.366 78.381 C 35.366 77.150 36.802 76.183 39.676 75.479 C 43.839 74.423 45.979 73.866 46.097 73.808 C 45.979 70.056 45.833 65.746 45.658 60.877 C 45.482 56.303 45.393 54.134 45.393 54.368 L 45.393 49.442 C 45.393 49.383 45.393 48.944 45.393 48.122 C 45.452 47.477 45.452 47.010 45.393 46.715 C 45.334 46.188 45.129 45.866 44.778 45.748 C 44.719 45.689 43.840 45.659 42.139 45.659 C 39.206 45.719 35.806 46.130 31.936 46.890 C 30.469 47.243 28.270 47.742 25.338 48.386 L 25.338 60.964 C 25.396 61.199 25.426 62.343 25.426 64.395 C 25.426 66.038 25.603 67.034 25.954 67.385 C 26.247 67.503 27.801 67.620 30.616 67.738 C 32.551 67.797 33.752 68.501 34.222 69.848 C 34.338 70.201 34.206 70.728 33.826 71.432 C 33.444 72.135 33.049 72.576 32.638 72.751 C 31.700 73.103 31.055 73.278 30.703 73.278 C 29.412 73.219 26.217 72.955 21.115 72.487 L 15.397 72.487 C 14.459 72.427 13.550 72.148 12.670 71.651 C 11.790 71.153 11.351 70.582 11.351 69.935 C 11.351 68.998 11.908 68.236 13.022 67.649 C 13.902 67.239 14.870 67.033 15.925 67.033 C 16.334 67.033 17.069 67.049 18.123 67.077 C 19.179 67.107 19.940 67.093 20.410 67.033 C 20.292 64.756 20.292 61.280 20.410 56.605 C 20.410 56.665 20.410 54.240 20.410 49.334 C 20.410 49.159 20.483 48.794 20.631 48.238 C 20.777 47.683 20.851 47.259 20.851 46.968 C 20.616 46.734 20.380 46.384 20.147 45.916 C 20.029 45.449 20.029 45.041 20.147 44.688 C 20.557 43.753 20.704 42.294 20.586 40.307 C 20.586 39.957 20.631 39.359 20.719 38.512 C 20.807 37.665 20.851 37.036 20.851 36.627 C 20.851 35.868 20.704 33.853 20.411 30.581 L 20.411 23.308 C 20.411 22.959 20.296 22.404 20.066 21.644 C 18.454 21.820 17.273 21.908 16.526 21.908 C 13.186 21.908 11.344 20.707 11 18.302 C 11.879 16.486 13.491 15.575 15.838 15.575 C 15.778 15.575 17.157 15.693 19.972 15.927 C 22.611 16.162 24.516 16.221 25.690 16.103 C 28.973 15.927 30.440 15.839 30.087 15.839 C 33.312 15.839 34.749 16.807 34.398 18.742 C 34.104 20.149 32.755 20.883 30.351 20.940 C 28.533 21 26.746 21.058 24.986 21.116 C 25.294 23.170 25.499 25.457 25.602 27.977 C 25.602 29.560 25.602 31.819 25.602 34.750 C 25.602 37.916 25.602 40.203 25.602 41.610 C 25.660 41.670 25.748 41.728 25.866 41.786 C 26.804 41.846 27.742 41.874 28.680 41.874 C 30.849 41.874 33.635 41.698 37.036 41.347 C 41.610 40.820 44.393 40.527 45.391 40.467 C 45.684 38.591 45.831 36.363 45.831 33.782 C 45.831 28.915 45.420 23.462 44.600 17.421 C 44.658 17.421 43.486 17.421 41.081 17.421 C 39.850 17.421 38.735 17.196 37.738 16.744 C 36.741 16.292 36.243 15.372 36.243 13.984 C 36.243 13.381 36.448 12.899 36.859 12.538 C 38.031 11.513 39.467 11 41.169 11 C 44.336 11 45.625 11.088 45.039 11.264 L 51.108 11.264 C 51.341 11.264 51.884 11.220 52.735 11.132 C 53.585 11.044 54.245 11 54.714 11 C 56.590 11 57.763 11.589 58.233 12.762 C 58.466 13.233 58.585 13.674 58.585 14.083 C 58.585 15.375 57.383 16.139 54.979 16.374 C 53.220 16.434 51.460 16.492 49.702 16.550 C 50.347 23.537 50.670 30.261 50.670 36.721 L 50.670 60.064 C 50.670 60.417 50.745 61.093 50.897 62.090 C 51.097 63.617 51.198 65.114 51.198 66.582 C 51.139 69.225 51.139 71.281 51.198 72.749 C 51.315 72.925 51.431 73.070 51.550 73.188 C 54.423 72.777 55.830 72.573 55.773 72.573 C 57.884 72.575 58.997 73.424 59.115 75.126 Z "/>
    </g>
  </g>
</svg>
